!!!OTL: DER MENSCH HAT NICHTS SO EIGEN
!!!ARE: Europa, Mitteleuropa, Deutschland
!!!SCT: B0295
!!!YEM: Copyright 1995, estate of Helmut Schaffrath.
**kern
*ICvox
*Ivox
*M6/8
*k[f#]
*G:
{8d
=1
4g
8a
4b
8cc
=2
4.dd
4a}
{8b
=3
4cc
8b
4a
8g
=4
[4.dd
4dd]}
{8d
=5
4g
8a
4b
8cc
=6
4.dd
4a}
{8b
=7
4cc
8b
4a
8g
=8
[4.dd
4dd]}
{8b
=9
4a
8b
4cc
8dd
=10
4.ee
4a}
{8dd
=11
4b
8g
4a
8f#
=12
[4.g
4g]}
{8b
=13
4a
8b
4cc
8dd
=14
4.ee
4a}
{8dd
=15
4b
8g
4a
8f#
=16
[4.g
4g]}
==
!!!AGN: Stimmungs - Lied, Freude, Geselligkeit, Freundschaft
!!!ONB: ESAC (Essen Associative Code) Database: BOEHME
!!!AMT: compound duple
!!!AIN: vox
!!!EED: Helmut Schaffrath
!!!EEV: 1.0
*-
